X:681
T:The humours of Ballyloughlin
T:The Hurler's march
R:Jig
O:Ireland
D:Matt Molloy
B:Fiddler's Fakebook
B:Ceol Rince 1 n32
S:My arrangement from various sources
Z:Transcription, arrangement, chords:Mike Long
M:6/8
L:1/8
K:G
"D"A2A AGE|GED DED|"C"c2A ded|"C"cAG FED|\
"D"A2A AGE|"C"GGG cGE|"D"~D3 DFA|[1 ~D3 D3:|[2 ~D3 D2|]
|:B|\
"C"c2B cAB|cAG ABc|"D"ded dfd|dAF DFA|\
"C"c2A "G"dcB|"C"cAG FGE|"D"~D3 DFA|~D3 D2:|
|:e|\
"D"fdd "G"gdd|"D"fdd "G"ged|"C"cde ged|"C"cde "G"ged|\
"D"fdd "G"gdd|"D"fdd "G"ged|"C"cde gag|"C"ed^c "D/G"d2:|
B\
|:"D"A2A A2G|F2F FED|"C"E2E EFD|"C"E2E EFG|\
"D"A2A "G"dAG|"D"FAF "C"GEA|"D"~D3 DFA|~D3 D3:|
